icons/Qogir/scalable/apps/preferences-desktop-plasma-theme.svg

<svg width="64" height="64" version="1.1" xmlns="http://www.w3.org/2000/svg">
 <rect x="6.002" y="5.9982" width="52" height="52" rx="3.001" ry="3.001" fill="none" opacity=".75" stroke="#2454d8" stroke-linecap="round" stroke-linejoin="round" stroke-width="1.9994" style="paint-order:markers stroke fill"/>
 <rect x="6.002" y="5.9982" width="52" height="52" rx="3.001" ry="3.001" fill="#90a9ff" stroke-width="3.7796" style="paint-order:markers stroke fill"/>
 <rect x="13.002" y="50.001" width="38" height="5.0004" ry="1.0016" fill="#fff" opacity=".35" stroke-width="3.7796" style="paint-order:markers stroke fill"/>
 <g fill="#ccdfff" stroke-width="3.7796">
  <rect x="17.001" y="47" width="5.0004" height="5.0004" ry=".49891" style="paint-order:stroke markers fill"/>
  <rect x="25.335" y="47" width="5.0004" height="5.0004" ry=".49891" style="paint-order:stroke markers fill"/>
  <rect x="33.669" y="47" width="5.0004" height="5.0004" ry=".49891" style="paint-order:stroke markers fill"/>
  <rect x="42.003" y="47" width="5.0004" height="5.0004" ry=".49891" style="paint-order:stroke markers fill"/>
 </g>
 <path d="m8.9992 5.9982a2.9934 2.9934 0 0 0-2.9972 3.001v0.99781h52v-0.99781a2.9934 2.9934 0 0 0-3.001-3.001z" opacity=".35" stroke-width="3.7796" style="paint-order:markers stroke fill"/>
 <rect x="26.911" y="6.9998" width="10.001" height="1.9994" ry="1.0016" opacity=".35" stroke-width="3.7796" style="paint-order:stroke markers fill"/>
 <path d="m26 18c-0.831 0-1.5 0.669-1.5 1.5s0.669 1.5 1.5 1.5 1.5-0.669 1.5-1.5-0.669-1.5-1.5-1.5zm9.4286 0-3.4286 3.4286 5.1429 5.1429-5.1429 5.1428 3.4286 3.4286 8.5714-8.5714-3.4286-3.4286zm-13.179 9c-1.2465 0-2.25 1.0035-2.25 2.25s1.0035 2.25 2.25 2.25 2.25-1.0035 2.25-2.25-1.0035-2.25-2.25-2.25zm6.75 9c-1.662 0-3 1.338-3 3s1.338 3 3 3 3-1.338 3-3-1.338-3-3-3z" fill="#fff"/>
</svg>

<svg xmlns="http://www.w3.org/2000/svg" width="64" height="64"><rect width="52" height="52" x="6.002" y="5.998" fill="none" stroke="#2454d8" stroke-linecap="round" stroke-linejoin="round" stroke-width="1.999" opacity=".75" rx="3.001" ry="3.001" style="paint-order:markers stroke fill"/><rect width="52" height="52" x="6.002" y="5.998" fill="#90a9ff" rx="3.001" ry="3.001" style="paint-order:markers stroke fill"/><rect width="38" height="5" x="13.002" y="50.001" fill="#fff" opacity=".35" ry="1.002" style="paint-order:markers stroke fill"/><g fill="#ccdfff" stroke-width="3.78"><rect width="5" height="5" x="17.001" y="47" ry=".499" style="paint-order:stroke markers fill"/><rect width="5" height="5" x="25.335" y="47" ry=".499" style="paint-order:stroke markers fill"/><rect width="5" height="5" x="33.669" y="47" ry=".499" style="paint-order:stroke markers fill"/><rect width="5" height="5" x="42.003" y="47" ry=".499" style="paint-order:stroke markers fill"/></g><path d="M9 5.998A2.993 2.993 0 0 0 6.001 9v.998h52V9A2.993 2.993 0 0 0 55 6z" opacity=".35" style="paint-order:markers stroke fill"/><rect width="10.001" height="1.999" x="26.911" y="7" opacity=".35" ry="1.002" style="paint-order:stroke markers fill"/><path fill="#fff" d="M26 18c-.831 0-1.5.669-1.5 1.5S25.169 21 26 21s1.5-.669 1.5-1.5S26.831 18 26 18m9.429 0L32 21.429l5.143 5.143L32 31.713l3.429 3.429L44 26.572l-3.429-3.43zm-13.18 9C21.004 27 20 28.004 20 29.25s1.004 2.25 2.25 2.25 2.25-1.004 2.25-2.25S23.497 27 22.25 27zM29 36c-1.661 0-3 1.338-3 3s1.339 3 3 3 3-1.338 3-3-1.337-3-3-3"/></svg>
